Newaita-dark/apps/22/figma.svg

<svg height="22" viewBox="0 0 22 22" width="22" xmlns="http://www.w3.org/2000/svg" xmlns:xlink="http://www.w3.org/1999/xlink"><linearGradient id="a"><stop offset="0" stop-opacity=".313726"/><stop offset=".222222" stop-opacity=".27451"/><stop offset="1" stop-opacity="0"/></linearGradient><radialGradient id="b" cx="450.908936" cy="189.579361" gradientTransform="matrix(.00000012 -.0537161 -.0966889 -.00000007 30.609667 43.721789)" gradientUnits="userSpaceOnUse" r="21.166656" xlink:href="#a"/><radialGradient id="c" cx="450.908936" cy="189.579361" gradientTransform="matrix(-.00000012 .0537161 .0966889 .00000007 -8.779457 -5.175144)" gradientUnits="userSpaceOnUse" r="21.166656" xlink:href="#a"/><radialGradient id="d" cx="450.908936" cy="189.579361" gradientTransform="matrix(-.00000012 -.0537161 .0966889 -.00000007 -8.779457 43.721789)" gradientUnits="userSpaceOnUse" r="21.166656" xlink:href="#a"/><radialGradient id="e" cx="450.908936" cy="189.579361" gradientTransform="matrix(.00000012 .0537161 -.0966889 .00000007 30.609666 -5.175144)" gradientUnits="userSpaceOnUse" r="21.166656" xlink:href="#a"/><linearGradient id="f" gradientTransform="matrix(.00918504 0 0 .0429729 8.569953 9.239164)" gradientUnits="userSpaceOnUse" x1="255.323059" x2="255.323044" y1="233.5" y2="254.666656"><stop offset="0" stop-opacity=".27451"/><stop offset="1" stop-opacity="0"/></linearGradient><linearGradient id="g" gradientUnits="userSpaceOnUse" x1="254" x2="254" y1="-168.666672" y2="233.5"><stop offset="0" stop-color="#616161"/><stop offset="1" stop-color="#424242"/></linearGradient><linearGradient id="h" gradientUnits="userSpaceOnUse" x1="9.55071770721" x2="9.55071770721" y1="19.27332715135" y2="1.99107284865"><stop offset="0" stop-color="#26a69a"/><stop offset="1" stop-color="#4db6ac"/></linearGradient><linearGradient id="i" gradientUnits="userSpaceOnUse" x1="10.00551399009" x2="10.00551399009" y1="19.27332815135" y2="1.76367515135"><stop offset="0" stop-color="#7e57c2"/><stop offset="1" stop-color="#9575cd"/></linearGradient><linearGradient id="j" gradientUnits="userSpaceOnUse" x1="10.91510627793" x2="10.91510627793" y1="19.27332915135" y2="1.76367642928"><stop offset="0" stop-color="#f44336"/><stop offset="1" stop-color="#ef5350"/></linearGradient><linearGradient id="k" gradientUnits="userSpaceOnUse" x1="12.27949357072" x2="12.27949357072" y1="19.27332915135" y2="1.76367642928"><stop offset="0" stop-color="#ef5350"/><stop offset="1" stop-color="#e57373"/></linearGradient><linearGradient id="l" gradientUnits="userSpaceOnUse" x1="12.27949357072" x2="12.27949357072" y1="19.27332815135" y2="1.99107329279"><stop offset="0" stop-color="#29b6f6"/><stop offset="1" stop-color="#4fc3f7"/></linearGradient><path d="m12.507812 19.273438h1.816407v-.910157h-1.816407zm0 0" fill="url(#b)"/><path d="m9.324219 19.273438h-1.820313v.910156h1.820313zm0 0" fill="url(#c)"/><path d="m9.324219 19.273438h-1.820313v-.910157h1.820313zm0 0" fill="url(#d)"/><path d="m12.507812 19.273438h1.816407v.910156h-1.816407zm0 0" fill="url(#e)"/><path d="m9.324219 19.046875h3.183593v1.136719h-3.183593zm0 0" fill="url(#f)"/><path d="m253.975747-168.640791c111.080301 0 201.071707 89.991407 201.071707 201.071708s-89.991406 201.071708-201.071707 201.071708c-110.989402 0-201.071708-89.991407-201.071708-201.071708s90.082306-201.071708 201.071708-201.071708zm0 0" fill="url(#g)" stroke="#333" stroke-linecap="round" stroke-width="3" transform="matrix(.0429729 0 0 .0429729 0 9.239163)"/><path d="m10.914062 19.273438c-4.785156 0-8.640624-3.855469-8.640624-8.640626 0-.027343 0-.058593 0-.085937.046874 4.75 3.882812 8.558594 8.640624 8.558594 4.761719 0 8.597657-3.808594 8.640626-8.558594v.085937c0 4.785157-3.851563 8.640626-8.640626 8.640626zm0 0" fill-opacity=".196078"/><path d="m10.914062 1.992188c-4.785156 0-8.640624 3.851562-8.640624 8.640624v.085938c.046874-4.75 3.882812-8.558594 8.640624-8.558594 4.761719 0 8.597657 3.808594 8.640626 8.558594 0-.03125 0-.058594 0-.085938 0-4.789062-3.851563-8.640624-8.640626-8.640624zm0 0" fill="#fff" fill-opacity=".392157"/><path d="m10.914062 1.925781c-4.820312 0-8.703124 3.882813-8.703124 8.707031 0 4.820313 3.882812 8.703126 8.703124 8.703126 4.824219 0 8.707032-3.882813 8.707032-8.703126 0-4.824218-3.882813-8.707031-8.707032-8.707031zm0 .128907c4.753907 0 8.578126 3.824218 8.578126 8.578124 0 4.75-3.824219 8.574219-8.578126 8.574219-4.75 0-8.574218-3.824219-8.574218-8.574219 0-4.753906 3.824218-8.578124 8.574218-8.578124zm0 0" fill="#212121"/><path d="m7.613281 10.972656c-.019531.109375-.035156.226563-.035156.339844 0 .921875.75 1.667969 1.667969 1.667969h1.667968v-.679688h-1.667968c-.800782 0-1.472656-.570312-1.632813-1.328125zm0 0" fill-opacity=".235294"/><path d="m9.246094 15.636719c.921875 0 1.667968-.75 1.667968-1.667969v-1.667969h-1.667968c-.917969 0-1.667969.746094-1.667969 1.667969 0 .917969.75 1.667969 1.667969 1.667969zm0 0" fill="url(#h)"/><path d="m10.914062 13.96875c0 .917969-.746093 1.667969-1.667968 1.667969-.800782 0-1.472656-.570313-1.632813-1.328125-.019531.109375-.035156.222656-.035156.339844 0 .921874.75 1.667968 1.667969 1.667968.921875 0 1.667968-.746094 1.667968-1.667968zm0 0" fill-opacity=".235294"/><path d="m7.613281 7.636719c-.019531.113281-.035156.226562-.035156.34375 0 .917969.75 1.667969 1.667969 1.667969h1.667968v-.683594h-1.667968c-.800782 0-1.472656-.570313-1.632813-1.328125zm0 0" fill-opacity=".235294"/><path d="m7.578125 10.632812c0-.921874.75-1.667968 1.667969-1.667968h1.667968v3.335937h-1.667968c-.917969 0-1.667969-.746093-1.667969-1.667969zm0 0" fill="url(#i)"/><path d="m7.578125 7.296875c0-.921875.75-1.667969 1.667969-1.667969h1.667968v3.335938h-1.667968c-.917969 0-1.667969-.746094-1.667969-1.667969zm0 0" fill="url(#j)"/><path d="m10.914062 5.628906h1.667969c.921875 0 1.667969.746094 1.667969 1.667969s-.746094 1.667969-1.667969 1.667969h-1.667969zm0 0" fill="url(#k)"/><path d="m14.214844 7.636719c-.15625.757812-.828125 1.328125-1.632813 1.328125h-1.667969v.683594h1.667969c.921875 0 1.667969-.75 1.667969-1.667969 0-.117188-.011719-.230469-.035156-.34375zm0 0" fill-opacity=".235294"/><path d="m14.25 10.632812c0 .921876-.746094 1.667969-1.667969 1.667969s-1.667969-.746093-1.667969-1.667969c0-.921874.746094-1.667968 1.667969-1.667968s1.667969.746094 1.667969 1.667968zm0 0" fill="url(#l)"/><path d="m10.949219 10.972656c-.023438.109375-.035157.226563-.035157.339844 0 .921875.746094 1.667969 1.667969 1.667969s1.667969-.746094 1.667969-1.667969c0-.113281-.011719-.230469-.035156-.339844-.15625.757813-.828125 1.328125-1.632813 1.328125-.804687 0-1.472656-.570312-1.632812-1.328125zm0 0" fill-opacity=".235294"/><path d="m9.246094 12.300781c-.917969 0-1.667969.746094-1.667969 1.667969 0 .074219.007813.152344.015625.226562.113281-.8125.808594-1.441406 1.652344-1.441406h1.667968v-.453125zm0 0" fill="#fff" fill-opacity=".392157"/><path d="m9.246094 8.964844c-.917969 0-1.667969.746094-1.667969 1.667968 0 .078126.007813.152344.015625.226563.113281-.8125.808594-1.441406 1.652344-1.441406h1.667968v-.453125zm0 0" fill="#fff" fill-opacity=".392157"/><path d="m9.246094 5.628906c-.917969 0-1.667969.746094-1.667969 1.667969 0 .078125.007813.152344.015625.226563.113281-.8125.808594-1.4375 1.652344-1.4375h1.667968v-.457032zm0 0" fill="#fff" fill-opacity=".392157"/><path d="m10.914062 5.628906v.457032h1.667969c.84375 0 1.542969.625 1.652344 1.4375.011719-.074219.015625-.148438.015625-.226563 0-.921875-.746094-1.667969-1.667969-1.667969zm0 0" fill="#fff" fill-opacity=".392157"/><path d="m12.582031 8.964844c-.921875 0-1.667969.746094-1.667969 1.667968 0 .078126.007813.152344.015626.226563.113281-.8125.808593-1.441406 1.652343-1.441406s1.542969.628906 1.652344 1.441406c.011719-.074219.015625-.148437.015625-.226563 0-.921874-.746094-1.667968-1.667969-1.667968zm0 0" fill="#fff" fill-opacity=".392157"/><g stroke-width="3"><path d="m215.161271 148.874343c21.452497 0 38.814476-17.452879 38.814476-38.814476v-38.814475h-38.814476c-21.361596 0-38.814475 17.361979-38.814475 38.814475 0 21.361597 17.452879 38.814476 38.814475 38.814476zm0 0" fill="none" stroke="#212121" transform="matrix(.0429729 0 0 .0429729 0 9.239163)"/><path d="m176.346796 32.430917c0-21.452497 17.452879-38.814475 38.814475-38.814475h38.814476v77.62895h-38.814476c-21.361596 0-38.814475-17.361978-38.814475-38.814475zm0 0" fill="none" stroke="#212121" transform="matrix(.0429729 0 0 .0429729 0 9.239163)"/><path d="m176.346796-45.198033c0-21.452497 17.452879-38.814476 38.814475-38.814476h38.814476v77.628951h-38.814476c-21.361596 0-38.814475-17.361979-38.814475-38.814475zm0 0" fill="none" stroke="#212121" transform="matrix(.0429729 0 0 .0429729 0 9.239163)"/><path d="m253.975747-84.012509h38.814475c21.452497 0 38.814475 17.361979 38.814475 38.814476 0 21.452496-17.361978 38.814475-38.814475 38.814475h-38.814475zm0 0" fill="none" stroke="#212121" transform="matrix(.0429729 0 0 .0429729 0 9.239163)"/><path d="m331.604697 32.430917c0 21.452497-17.361978 38.814475-38.814475 38.814475s-38.814475-17.361978-38.814475-38.814475 17.361978-38.814475 38.814475-38.814475 38.814475 17.361978 38.814475 38.814475zm0 0" fill="none" stroke="#212121" transform="matrix(.0429729 0 0 .0429729 0 9.239163)"/></g></svg>

<?xml version="1.0" encoding="UTF-8"?>
<svg xmlns="http://www.w3.org/2000/svg" xmlns:xlink="http://www.w3.org/1999/xlink" width="22px" height="22px" viewBox="0 0 22 22" version="1.1">
<defs>
<radialGradient id="radial0" gradientUnits="userSpaceOnUse" cx="450.908936" cy="189.579361" fx="450.908936" fy="189.579361" r="21.166656" gradientTransform="matrix(0.000000119742,-0.0537161,-0.0966889,-0.0000000698078,30.609667,43.721789)">
<stop offset="0" style="stop-color:rgb(0%,0%,0%);stop-opacity:0.313726;"/>
<stop offset="0.222222" style="stop-color:rgb(0%,0%,0%);stop-opacity:0.27451;"/>
<stop offset="1" style="stop-color:rgb(0%,0%,0%);stop-opacity:0;"/>
</radialGradient>
<radialGradient id="radial1" gradientUnits="userSpaceOnUse" cx="450.908936" cy="189.579361" fx="450.908936" fy="189.579361" r="21.166656" gradientTransform="matrix(-0.000000119742,0.0537161,0.0966889,0.0000000698078,-8.779457,-5.175144)">
<stop offset="0" style="stop-color:rgb(0%,0%,0%);stop-opacity:0.313726;"/>
<stop offset="0.222222" style="stop-color:rgb(0%,0%,0%);stop-opacity:0.27451;"/>
<stop offset="1" style="stop-color:rgb(0%,0%,0%);stop-opacity:0;"/>
</radialGradient>
<radialGradient id="radial2" gradientUnits="userSpaceOnUse" cx="450.908936" cy="189.579361" fx="450.908936" fy="189.579361" r="21.166656" gradientTransform="matrix(-0.000000119742,-0.0537161,0.0966889,-0.0000000698078,-8.779457,43.721789)">
<stop offset="0" style="stop-color:rgb(0%,0%,0%);stop-opacity:0.313726;"/>
<stop offset="0.222222" style="stop-color:rgb(0%,0%,0%);stop-opacity:0.27451;"/>
<stop offset="1" style="stop-color:rgb(0%,0%,0%);stop-opacity:0;"/>
</radialGradient>
<radialGradient id="radial3" gradientUnits="userSpaceOnUse" cx="450.908936" cy="189.579361" fx="450.908936" fy="189.579361" r="21.166656" gradientTransform="matrix(0.000000119742,0.0537161,-0.0966889,0.0000000698078,30.609666,-5.175144)">
<stop offset="0" style="stop-color:rgb(0%,0%,0%);stop-opacity:0.313726;"/>
<stop offset="0.222222" style="stop-color:rgb(0%,0%,0%);stop-opacity:0.27451;"/>
<stop offset="1" style="stop-color:rgb(0%,0%,0%);stop-opacity:0;"/>
</radialGradient>
<linearGradient id="linear0" gradientUnits="userSpaceOnUse" x1="255.323059" y1="233.5" x2="255.323044" y2="254.666656" gradientTransform="matrix(0.00918504,0,0,0.0429729,8.569953,9.239164)">
<stop offset="0" style="stop-color:rgb(0%,0%,0%);stop-opacity:0.27451;"/>
<stop offset="1" style="stop-color:rgb(0%,0%,0%);stop-opacity:0;"/>
</linearGradient>
<linearGradient id="linear1" gradientUnits="userSpaceOnUse" x1="254" y1="-168.666672" x2="254" y2="233.5" >
<stop offset="0" style="stop-color:rgb(38.039216%,38.039216%,38.039216%);stop-opacity:1;"/>
<stop offset="1" style="stop-color:rgb(25.882354%,25.882354%,25.882354%);stop-opacity:1;"/>
</linearGradient>
<linearGradient id="linear2" gradientUnits="userSpaceOnUse" x1="7.09091" y1="25.090908" x2="7.09091" y2="-37.090908" gradientTransform="matrix(0.277931,0,0,0.277931,7.579934,12.299786)">
<stop offset="0" style="stop-color:rgb(14.901961%,65.098041%,60.392159%);stop-opacity:1;"/>
<stop offset="1" style="stop-color:rgb(30.19608%,71.372551%,67.450982%);stop-opacity:1;"/>
</linearGradient>
<linearGradient id="linear3" gradientUnits="userSpaceOnUse" x1="8.727274" y1="37.090908" x2="8.727274" y2="-25.909092" gradientTransform="matrix(0.277931,0,0,0.277931,7.579934,8.964615)">
<stop offset="0" style="stop-color:rgb(49.411765%,34.117648%,76.078433%);stop-opacity:1;"/>
<stop offset="1" style="stop-color:rgb(58.431375%,45.882353%,80.392158%);stop-opacity:1;"/>
</linearGradient>
<linearGradient id="linear4" gradientUnits="userSpaceOnUse" x1="12.000001" y1="49.090908" x2="12.000001" y2="-13.909091" gradientTransform="matrix(0.277931,0,0,0.277931,7.579934,5.629444)">
<stop offset="0" style="stop-color:rgb(95.686275%,26.274511%,21.176471%);stop-opacity:1;"/>
<stop offset="1" style="stop-color:rgb(93.725491%,32.549021%,31.37255%);stop-opacity:1;"/>
</linearGradient>
<linearGradient id="linear5" gradientUnits="userSpaceOnUse" x1="4.909091" y1="49.090908" x2="4.909091" y2="-13.909091" gradientTransform="matrix(0.277931,0,0,0.277931,10.915105,5.629444)">
<stop offset="0" style="stop-color:rgb(93.725491%,32.549021%,31.37255%);stop-opacity:1;"/>
<stop offset="1" style="stop-color:rgb(89.803922%,45.09804%,45.09804%);stop-opacity:1;"/>
</linearGradient>
<linearGradient id="linear6" gradientUnits="userSpaceOnUse" x1="4.909091" y1="37.090908" x2="4.909091" y2="-25.09091" gradientTransform="matrix(0.277931,0,0,0.277931,10.915105,8.964615)">
<stop offset="0" style="stop-color:rgb(16.078432%,71.372551%,96.470588%);stop-opacity:1;"/>
<stop offset="1" style="stop-color:rgb(30.980393%,76.47059%,96.862745%);stop-opacity:1;"/>
</linearGradient>
</defs>
<g id="surface1">
<path style=" stroke:none;fill-rule:nonzero;fill:url(#radial0);" d="M 12.507812 19.273438 L 14.324219 19.273438 L 14.324219 18.363281 L 12.507812 18.363281 Z M 12.507812 19.273438 "/>
<path style=" stroke:none;fill-rule:nonzero;fill:url(#radial1);" d="M 9.324219 19.273438 L 7.503906 19.273438 L 7.503906 20.183594 L 9.324219 20.183594 Z M 9.324219 19.273438 "/>
<path style=" stroke:none;fill-rule:nonzero;fill:url(#radial2);" d="M 9.324219 19.273438 L 7.503906 19.273438 L 7.503906 18.363281 L 9.324219 18.363281 Z M 9.324219 19.273438 "/>
<path style=" stroke:none;fill-rule:nonzero;fill:url(#radial3);" d="M 12.507812 19.273438 L 14.324219 19.273438 L 14.324219 20.183594 L 12.507812 20.183594 Z M 12.507812 19.273438 "/>
<path style=" stroke:none;fill-rule:nonzero;fill:url(#linear0);" d="M 9.324219 19.046875 L 12.507812 19.046875 L 12.507812 20.183594 L 9.324219 20.183594 Z M 9.324219 19.046875 "/>
<path style="fill-rule:nonzero;fill:url(#linear1);stroke-width:3;stroke-linecap:round;stroke-linejoin:miter;stroke:rgb(20%,20%,20%);stroke-opacity:1;stroke-miterlimit:4;" d="M 253.975747 -168.640791 C 365.056048 -168.640791 455.047454 -78.649384 455.047454 32.430917 C 455.047454 143.511218 365.056048 233.502625 253.975747 233.502625 C 142.986345 233.502625 52.904039 143.511218 52.904039 32.430917 C 52.904039 -78.649384 142.986345 -168.640791 253.975747 -168.640791 Z M 253.975747 -168.640791 " transform="matrix(0.0429729,0,0,0.0429729,0,9.239163)"/>
<path style=" stroke:none;fill-rule:nonzero;fill:rgb(0%,0%,0%);fill-opacity:0.196078;" d="M 10.914062 19.273438 C 6.128906 19.273438 2.273438 15.417969 2.273438 10.632812 C 2.273438 10.605469 2.273438 10.574219 2.273438 10.546875 C 2.320312 15.296875 6.15625 19.105469 10.914062 19.105469 C 15.675781 19.105469 19.511719 15.296875 19.554688 10.546875 C 19.554688 10.574219 19.554688 10.605469 19.554688 10.632812 C 19.554688 15.417969 15.703125 19.273438 10.914062 19.273438 Z M 10.914062 19.273438 "/>
<path style=" stroke:none;fill-rule:nonzero;fill:rgb(100%,100%,100%);fill-opacity:0.392157;" d="M 10.914062 1.992188 C 6.128906 1.992188 2.273438 5.84375 2.273438 10.632812 C 2.273438 10.660156 2.273438 10.6875 2.273438 10.71875 C 2.320312 5.96875 6.15625 2.160156 10.914062 2.160156 C 15.675781 2.160156 19.511719 5.96875 19.554688 10.71875 C 19.554688 10.6875 19.554688 10.660156 19.554688 10.632812 C 19.554688 5.84375 15.703125 1.992188 10.914062 1.992188 Z M 10.914062 1.992188 "/>
<path style=" stroke:none;fill-rule:nonzero;fill:rgb(12.941177%,12.941177%,12.941177%);fill-opacity:1;" d="M 10.914062 1.925781 C 6.09375 1.925781 2.210938 5.808594 2.210938 10.632812 C 2.210938 15.453125 6.09375 19.335938 10.914062 19.335938 C 15.738281 19.335938 19.621094 15.453125 19.621094 10.632812 C 19.621094 5.808594 15.738281 1.925781 10.914062 1.925781 Z M 10.914062 2.054688 C 15.667969 2.054688 19.492188 5.878906 19.492188 10.632812 C 19.492188 15.382812 15.667969 19.207031 10.914062 19.207031 C 6.164062 19.207031 2.339844 15.382812 2.339844 10.632812 C 2.339844 5.878906 6.164062 2.054688 10.914062 2.054688 Z M 10.914062 2.054688 "/>
<path style=" stroke:none;fill-rule:nonzero;fill:rgb(0%,0%,0%);fill-opacity:0.235294;" d="M 7.613281 10.972656 C 7.59375 11.082031 7.578125 11.199219 7.578125 11.3125 C 7.578125 12.234375 8.328125 12.980469 9.246094 12.980469 L 10.914062 12.980469 L 10.914062 12.300781 L 9.246094 12.300781 C 8.445312 12.300781 7.773438 11.730469 7.613281 10.972656 Z M 7.613281 10.972656 "/>
<path style=" stroke:none;fill-rule:nonzero;fill:url(#linear2);" d="M 9.246094 15.636719 C 10.167969 15.636719 10.914062 14.886719 10.914062 13.96875 L 10.914062 12.300781 L 9.246094 12.300781 C 8.328125 12.300781 7.578125 13.046875 7.578125 13.96875 C 7.578125 14.886719 8.328125 15.636719 9.246094 15.636719 Z M 9.246094 15.636719 "/>
<path style=" stroke:none;fill-rule:nonzero;fill:rgb(0%,0%,0%);fill-opacity:0.235294;" d="M 10.914062 13.96875 C 10.914062 14.886719 10.167969 15.636719 9.246094 15.636719 C 8.445312 15.636719 7.773438 15.066406 7.613281 14.308594 C 7.59375 14.417969 7.578125 14.53125 7.578125 14.648438 C 7.578125 15.570312 8.328125 16.316406 9.246094 16.316406 C 10.167969 16.316406 10.914062 15.570312 10.914062 14.648438 Z M 10.914062 13.96875 "/>
<path style=" stroke:none;fill-rule:nonzero;fill:rgb(0%,0%,0%);fill-opacity:0.235294;" d="M 7.613281 7.636719 C 7.59375 7.75 7.578125 7.863281 7.578125 7.980469 C 7.578125 8.898438 8.328125 9.648438 9.246094 9.648438 L 10.914062 9.648438 L 10.914062 8.964844 L 9.246094 8.964844 C 8.445312 8.964844 7.773438 8.394531 7.613281 7.636719 Z M 7.613281 7.636719 "/>
<path style=" stroke:none;fill-rule:nonzero;fill:url(#linear3);" d="M 7.578125 10.632812 C 7.578125 9.710938 8.328125 8.964844 9.246094 8.964844 L 10.914062 8.964844 L 10.914062 12.300781 L 9.246094 12.300781 C 8.328125 12.300781 7.578125 11.554688 7.578125 10.632812 Z M 7.578125 10.632812 "/>
<path style=" stroke:none;fill-rule:nonzero;fill:url(#linear4);" d="M 7.578125 7.296875 C 7.578125 6.375 8.328125 5.628906 9.246094 5.628906 L 10.914062 5.628906 L 10.914062 8.964844 L 9.246094 8.964844 C 8.328125 8.964844 7.578125 8.21875 7.578125 7.296875 Z M 7.578125 7.296875 "/>
<path style=" stroke:none;fill-rule:nonzero;fill:url(#linear5);" d="M 10.914062 5.628906 L 12.582031 5.628906 C 13.503906 5.628906 14.25 6.375 14.25 7.296875 C 14.25 8.21875 13.503906 8.964844 12.582031 8.964844 L 10.914062 8.964844 Z M 10.914062 5.628906 "/>
<path style=" stroke:none;fill-rule:nonzero;fill:rgb(0%,0%,0%);fill-opacity:0.235294;" d="M 14.214844 7.636719 C 14.058594 8.394531 13.386719 8.964844 12.582031 8.964844 L 10.914062 8.964844 L 10.914062 9.648438 L 12.582031 9.648438 C 13.503906 9.648438 14.25 8.898438 14.25 7.980469 C 14.25 7.863281 14.238281 7.75 14.214844 7.636719 Z M 14.214844 7.636719 "/>
<path style=" stroke:none;fill-rule:nonzero;fill:url(#linear6);" d="M 14.25 10.632812 C 14.25 11.554688 13.503906 12.300781 12.582031 12.300781 C 11.660156 12.300781 10.914062 11.554688 10.914062 10.632812 C 10.914062 9.710938 11.660156 8.964844 12.582031 8.964844 C 13.503906 8.964844 14.25 9.710938 14.25 10.632812 Z M 14.25 10.632812 "/>
<path style=" stroke:none;fill-rule:nonzero;fill:rgb(0%,0%,0%);fill-opacity:0.235294;" d="M 10.949219 10.972656 C 10.925781 11.082031 10.914062 11.199219 10.914062 11.3125 C 10.914062 12.234375 11.660156 12.980469 12.582031 12.980469 C 13.503906 12.980469 14.25 12.234375 14.25 11.3125 C 14.25 11.199219 14.238281 11.082031 14.214844 10.972656 C 14.058594 11.730469 13.386719 12.300781 12.582031 12.300781 C 11.777344 12.300781 11.109375 11.730469 10.949219 10.972656 Z M 10.949219 10.972656 "/>
<path style=" stroke:none;fill-rule:nonzero;fill:rgb(100%,100%,100%);fill-opacity:0.392157;" d="M 9.246094 12.300781 C 8.328125 12.300781 7.578125 13.046875 7.578125 13.96875 C 7.578125 14.042969 7.585938 14.121094 7.59375 14.195312 C 7.707031 13.382812 8.402344 12.753906 9.246094 12.753906 L 10.914062 12.753906 L 10.914062 12.300781 Z M 9.246094 12.300781 "/>
<path style=" stroke:none;fill-rule:nonzero;fill:rgb(100%,100%,100%);fill-opacity:0.392157;" d="M 9.246094 8.964844 C 8.328125 8.964844 7.578125 9.710938 7.578125 10.632812 C 7.578125 10.710938 7.585938 10.785156 7.59375 10.859375 C 7.707031 10.046875 8.402344 9.417969 9.246094 9.417969 L 10.914062 9.417969 L 10.914062 8.964844 Z M 9.246094 8.964844 "/>
<path style=" stroke:none;fill-rule:nonzero;fill:rgb(100%,100%,100%);fill-opacity:0.392157;" d="M 9.246094 5.628906 C 8.328125 5.628906 7.578125 6.375 7.578125 7.296875 C 7.578125 7.375 7.585938 7.449219 7.59375 7.523438 C 7.707031 6.710938 8.402344 6.085938 9.246094 6.085938 L 10.914062 6.085938 L 10.914062 5.628906 Z M 9.246094 5.628906 "/>
<path style=" stroke:none;fill-rule:nonzero;fill:rgb(100%,100%,100%);fill-opacity:0.392157;" d="M 10.914062 5.628906 L 10.914062 6.085938 L 12.582031 6.085938 C 13.425781 6.085938 14.125 6.710938 14.234375 7.523438 C 14.246094 7.449219 14.25 7.375 14.25 7.296875 C 14.25 6.375 13.503906 5.628906 12.582031 5.628906 Z M 10.914062 5.628906 "/>
<path style=" stroke:none;fill-rule:nonzero;fill:rgb(100%,100%,100%);fill-opacity:0.392157;" d="M 12.582031 8.964844 C 11.660156 8.964844 10.914062 9.710938 10.914062 10.632812 C 10.914062 10.710938 10.921875 10.785156 10.929688 10.859375 C 11.042969 10.046875 11.738281 9.417969 12.582031 9.417969 C 13.425781 9.417969 14.125 10.046875 14.234375 10.859375 C 14.246094 10.785156 14.25 10.710938 14.25 10.632812 C 14.25 9.710938 13.503906 8.964844 12.582031 8.964844 Z M 12.582031 8.964844 "/>
<path style="fill:none;stroke-width:3;stroke-linecap:butt;stroke-linejoin:miter;stroke:rgb(12.941177%,12.941177%,12.941177%);stroke-opacity:1;stroke-miterlimit:4;" d="M 215.161271 148.874343 C 236.613768 148.874343 253.975747 131.421464 253.975747 110.059867 L 253.975747 71.245392 L 215.161271 71.245392 C 193.799675 71.245392 176.346796 88.607371 176.346796 110.059867 C 176.346796 131.421464 193.799675 148.874343 215.161271 148.874343 Z M 215.161271 148.874343 " transform="matrix(0.0429729,0,0,0.0429729,0,9.239163)"/>
<path style="fill:none;stroke-width:3;stroke-linecap:butt;stroke-linejoin:miter;stroke:rgb(12.941177%,12.941177%,12.941177%);stroke-opacity:1;stroke-miterlimit:4;" d="M 176.346796 32.430917 C 176.346796 10.97842 193.799675 -6.383558 215.161271 -6.383558 L 253.975747 -6.383558 L 253.975747 71.245392 L 215.161271 71.245392 C 193.799675 71.245392 176.346796 53.883414 176.346796 32.430917 Z M 176.346796 32.430917 " transform="matrix(0.0429729,0,0,0.0429729,0,9.239163)"/>
<path style="fill:none;stroke-width:3;stroke-linecap:butt;stroke-linejoin:miter;stroke:rgb(12.941177%,12.941177%,12.941177%);stroke-opacity:1;stroke-miterlimit:4;" d="M 176.346796 -45.198033 C 176.346796 -66.65053 193.799675 -84.012509 215.161271 -84.012509 L 253.975747 -84.012509 L 253.975747 -6.383558 L 215.161271 -6.383558 C 193.799675 -6.383558 176.346796 -23.745537 176.346796 -45.198033 Z M 176.346796 -45.198033 " transform="matrix(0.0429729,0,0,0.0429729,0,9.239163)"/>
<path style="fill:none;stroke-width:3;stroke-linecap:butt;stroke-linejoin:miter;stroke:rgb(12.941177%,12.941177%,12.941177%);stroke-opacity:1;stroke-miterlimit:4;" d="M 253.975747 -84.012509 L 292.790222 -84.012509 C 314.242719 -84.012509 331.604697 -66.65053 331.604697 -45.198033 C 331.604697 -23.745537 314.242719 -6.383558 292.790222 -6.383558 L 253.975747 -6.383558 Z M 253.975747 -84.012509 " transform="matrix(0.0429729,0,0,0.0429729,0,9.239163)"/>
<path style="fill:none;stroke-width:3;stroke-linecap:butt;stroke-linejoin:miter;stroke:rgb(12.941177%,12.941177%,12.941177%);stroke-opacity:1;stroke-miterlimit:4;" d="M 331.604697 32.430917 C 331.604697 53.883414 314.242719 71.245392 292.790222 71.245392 C 271.337725 71.245392 253.975747 53.883414 253.975747 32.430917 C 253.975747 10.97842 271.337725 -6.383558 292.790222 -6.383558 C 314.242719 -6.383558 331.604697 10.97842 331.604697 32.430917 Z M 331.604697 32.430917 " transform="matrix(0.0429729,0,0,0.0429729,0,9.239163)"/>
</g>
</svg>
